pix/doc.svg

<svg xmlns="http://www.w3.org/2000/svg" viewBox="0 0 210 250" enable-background="new 0 0 210 250"><circle fill="#3289A3" cx="104.8" cy="125.2" r="97.5"/><path fill="#F5F5F5" d="M65.8 65.7c-3.7 0-6.6 2.9-6.6 6.6v105.2c0 3.7 2.9 6.6 6.6 6.6h75.6c3.7 0 6.6-2.9 6.6-6.6v-81.3l-31.7-30.5h-50.5z"/><path fill="#E1E1E1" d="M147.8 96.3h-25c-3.7 0-6.6-2.9-6.6-6.6v-24l31.6 30.6z"/><path fill="#C9C9C8" d="M105.4 145.7h-34.4c-1.1 0-2 .9-2 2s.9 2 2 2h34.3c1.1 0 2-.9 2-2 .1-1.1-.8-2-1.9-2zM138.6 105.2c0 1.1-.9 2-2 2h-65.6c-1.1 0-2-.9-2-2s.9-2 2-2h65.8c.9 0 1.8.9 1.8 2zM138.6 115.9c0 1.1-.9 2-2 2h-65.6c-1.1 0-2-.9-2-2s.9-2 2-2h65.8c.9.1 1.8 1 1.8 2zM138.6 126.2c0 1.1-.9 2-2 2h-65.6c-1.1 0-2-.9-2-2s.9-2 2-2h65.8c.9 0 1.8.9 1.8 2zM138.6 136.9c0 1.1-.9 2-2 2h-65.6c-1.1 0-2-.9-2-2s.9-2 2-2h65.8c.9.1 1.8 1 1.8 2z"/></svg>

<?xml version="1.0" encoding="utf-8"?>
<!-- Generator: Adobe Illustrator 18.0.0, SVG Export Plug-In . SVG Version: 6.00 Build 0)  -->
<!DOCTYPE svg PUBLIC "-//W3C//DTD SVG 1.1//EN" "http://www.w3.org/Graphics/SVG/1.1/DTD/svg11.dtd">
<svg version="1.1" id="Layer_1" xmlns="http://www.w3.org/2000/svg" xmlns:xlink="http://www.w3.org/1999/xlink" x="0px" y="0px"
	 viewBox="0 0 210 250" enable-background="new 0 0 210 250" xml:space="preserve">
<circle fill="#3289A3" cx="104.8" cy="125.2" r="97.5"/>
<g>
	<path fill="#F5F5F5" d="M65.8,65.7c-3.7,0-6.6,2.9-6.6,6.6v105.2c0,3.7,2.9,6.6,6.6,6.6h75.6c3.7,0,6.6-2.9,6.6-6.6V96.2
		l-31.7-30.5H65.8z"/>
	<path fill="#E1E1E1" d="M147.8,96.3h-25c-3.7,0-6.6-2.9-6.6-6.6V65.7L147.8,96.3z"/>
	<path fill="#C9C9C8" d="M105.4,145.7H71c-1.1,0-2,0.9-2,2s0.9,2,2,2h34.3c1.1,0,2-0.9,2-2C107.4,146.6,106.5,145.7,105.4,145.7z"/>
	<path fill="#C9C9C8" d="M138.6,105.2c0,1.1-0.9,2-2,2H71c-1.1,0-2-0.9-2-2l0,0c0-1.1,0.9-2,2-2h65.8
		C137.7,103.2,138.6,104.1,138.6,105.2L138.6,105.2z"/>
	<path fill="#C9C9C8" d="M138.6,115.9c0,1.1-0.9,2-2,2H71c-1.1,0-2-0.9-2-2l0,0c0-1.1,0.9-2,2-2h65.8
		C137.7,114,138.6,114.9,138.6,115.9L138.6,115.9z"/>
	<path fill="#C9C9C8" d="M138.6,126.2c0,1.1-0.9,2-2,2H71c-1.1,0-2-0.9-2-2l0,0c0-1.1,0.9-2,2-2h65.8
		C137.7,124.2,138.6,125.1,138.6,126.2L138.6,126.2z"/>
	<path fill="#C9C9C8" d="M138.6,136.9c0,1.1-0.9,2-2,2H71c-1.1,0-2-0.9-2-2l0,0c0-1.1,0.9-2,2-2h65.8
		C137.7,135,138.6,135.9,138.6,136.9L138.6,136.9z"/>
</g>
</svg>
